icons/svg/24x24/locked/filled.svg

<svg xmlns="http://www.w3.org/2000/svg" width="24" height="24" viewBox="0 0 24 24">
  <path fill-rule="evenodd" d="M14.5,8.1016 C13.65,8.0396 12.784,7.9996 12,7.9996 C11.216,7.9996 10.35,8.0396 9.5,8.1016 L9.5,6.4996 C9.5,5.1216 10.621,3.9996 12,3.9996 C13.379,3.9996 14.5,5.1216 14.5,6.4996 L14.5,8.1016 Z M13,14.7226 L13,18.9996 L11,18.9996 L11,14.7226 C10.404,14.3756 10,13.7386 10,12.9996 C10,11.8956 10.896,10.9996 12,10.9996 C13.104,10.9996 14,11.8956 14,12.9996 C14,13.7386 13.596,14.3756 13,14.7226 L13,14.7226 Z M18.446,8.5936 C17.984,8.4926 17.295,8.3856 16.5,8.2906 L16.5,6.4996 C16.5,4.0186 14.481,1.9996 12,1.9996 C9.519,1.9996 7.5,4.0186 7.5,6.4996 L7.5,8.2906 C6.705,8.3856 6.016,8.4926 5.554,8.5936 C4.643,8.7936 4,9.6106 4,10.5426 L4,19.4566 C4,20.3896 4.643,21.2056 5.554,21.4066 C6.815,21.6836 9.749,21.9996 12,21.9996 C14.251,21.9996 17.185,21.6836 18.446,21.4066 C19.357,21.2056 20,20.3896 20,19.4566 L20,10.5426 C20,9.6106 19.357,8.7936 18.446,8.5936 L18.446,8.5936 Z"/>
</svg>

<svg width="24" height="24" fill="none" xmlns="http://www.w3.org/2000/svg">
  <path fill-rule="evenodd" clip-rule="evenodd" d="M14.5 8.102A35.212 35.212 0 0012 8c-.784 0-1.65.04-2.5.102V6.5C9.5 5.122 10.621 4 12 4s2.5 1.122 2.5 2.5v1.602zm-1.5 6.62V19h-2v-4.277A1.99 1.99 0 0110 13a2 2 0 014 0 1.99 1.99 0 01-1 1.723zm5.446-6.128A22.277 22.277 0 0016.5 8.29V6.5C16.5 4.019 14.481 2 12 2a4.505 4.505 0 00-4.5 4.5v1.79c-.795.096-1.484.203-1.946.304A1.991 1.991 0 004 10.543v8.914c0 .933.643 1.749 1.554 1.95C6.815 21.684 9.749 22 12 22c2.251 0 5.185-.316 6.446-.593A1.993 1.993 0 0020 19.457v-8.914c0-.932-.643-1.75-1.554-1.95z" fill="#000"/>
</svg>
